lib/brands/icons/rubygems.svg

<svg xmlns="http://www.w3.org/2000/svg" fill="none" aria-hidden="true" viewBox="0 0 48 48"><g id="rubygems-Icon"><g id="Union"><path fill="#D34231" d="M17.6998 17.84L17.7198 17.86L17.6998 17.82H30.3798V17.84L34.8198 22.28L28.4798 28.62L24.0398 33.04L13.2598 22.28L17.6998 17.84Z"/><path fill="#D34231" fill-rule="evenodd" d="M8.2998 15L23.9998 6L39.6998 15V33L23.9998 42L8.2998 33V15ZM23.9998 38.6L36.6998 31.28V16.68L23.9998 9.36L11.2998 16.68V31.28L23.9998 38.6Z" clip-rule="evenodd"/></g></g></svg>

<svg xmlns="http://www.w3.org/2000/svg" fill="none" aria-hidden="true" viewBox="0 0 48 48"><path fill="#D34231" d="m17.7 17.84.02.02-.02-.04h12.68v.02l4.44 4.44-6.34 6.34-4.44 4.42-10.78-10.76 4.44-4.44Z"/><path fill="#D34231" fill-rule="evenodd" d="M8.3 15 24 6l15.7 9v18L24 42 8.3 33V15ZM24 38.6l12.7-7.32v-14.6L24 9.36l-12.7 7.32v14.6L24 38.6Z" clip-rule="evenodd"/></svg>
